!!!!SEGMENT: pl-wnifc--13846--036_anonim--piesni-polskie-i-ruskie-ludu-galicyjskiego-36-a-kiedy-mnie-moj-dziewcze.krn
!!!cenid: 18xx:3258
!!!COM: Anonim
!!!COM-rismID: pe30004985
!!!CDT:
!!!CNT:
!!!GTL: Pieśni polskie i ruskie ludu galicyjskiego
!!!OTL: 36. A kiedy mnie moj dziewczę
!!!PDT: 1833
!!!AGN:
!!!SMS-siglum: PL-Wnifc
!!!SMS-shelfmark: 13846
!!!SMS-shelfwork: 036 G
!!!SMS-variant:
!!!SMS-altvar:
!!!NIFC-rismSourceID: 1001036701
!!!NIFC-rismChildID: 1001036909
!!!NIFC-islandoraID: nifc:210326
!!!URL-pdf-islandora: https://repozytorium.nifc.pl/islandora/object/nifc%3A210326/datastream/PDF/view
!!!URL-scan:
!!!ONB-nifc:
!!!AIN: 2 piano 1 soprn
!!!key: G
**kern	**kern	**dynam	**kern	**text	**text
*group2	*group2	*	*group1	*	*
*part3	*part2	*part2	*part1	*part1	*part1
*staff3	*staff2	*	*staff1	*staff1	*staff1
*I"[Piano]	*I"[Piano]	*	*I"[Soprano]	*	*
*Ipiano	*Ipiano	*	*Isoprn	*	*
*ICklav	*ICklav	*	*ICvox	*	*
*IGacmp	*IGacmp	*	*IGsolo	*	*
*clefF4	*clefG2	*	*clefG2	*	*
*k[f#]	*k[f#]	*	*k[f#]	*	*
*G:	*G:	*	*G:	*	*
*M2/4	*M2/4	*	*M2/4	*	*
=1	=1	=1	=1	=1	=1
!	!	!	!LO:TX:b:B:rj:t=D.b.B.\n22.	!	!
!	!	!	!LO:TX:a:B:t=Krakowiak.	!	!
8GG/ 8G/	8B/L 8g/	.	8g/	A	To
8r	8f#/ 8a/	.	8a/	kie-	ja
8GG/ 8G/	8g/ 8b/	.	8b/	-dy	poj-
8r	8a/J 8cc/	.	8cc\	mię	-de
=2	=2	=2	=2	=2	=2
8GG/ 8G/	8b\L 8dd\	.	8dd\	mo-	do
8r	8a#X\J 8cc#X\	.	8cc#X\	-je	Rze-
8GG/ 8G/	8ccn\L 8ee\	.	8ee\	dziew-	-szo-
8r	8b\J 8dd	.	8dd\	-cze,	-wa
!!LO:LB:g=original
=3	=3	=3	=3	=3	=3
8GGG/ 8GG/	8b\L 8dd\	.	8dd\	mo-	do
8r	8a#X\J 8cc#X\	.	8cc#X\	-je	Tar-
8GG/ 8G/	8ccn\L 8ee\	.	8ee\	ser-	-no-
8r	8b\J 8dd\	.	8dd\	-ce,	-wa,
=4	=4	=4	=4	=4	=4
8GGG/ 8GG/	8b\L 8dd\	.	8dd\	mo-	do
8r	8a#X\J 8cc#X\	.	8cc#X\	-ja	Kra-
8GG/ 8G/	8ccn\L 8ee\	.	8ee\	dusz-	-ko-
8r	8b\J 8dd\	.	8dd\	-ko,	-wa
=5	=5	=5	=5	=5	=5
8GGG/ 8GG/	8b\L 8dd\	.	8dd\	mo-	i
8r	8a#X\J 8cc#X\	.	8cc#X\	-ja	do
8GG/ 8G/	8ccn\L 8ee\	.	8ee\	lub-	Wie-
8r	8b\J 8dd\	.	8dd\	-ko,	-dnia,
!!LO:PB:g=original
=6	=6	=6	=6	=6	=6
.	8qd/	.	.	.	.
8DD/L	8dd\L	.	8dd\	nie	a
!!mixed beam:problem
!LO:TX:t=P:mixedbeam:problem	!	!	!	!	!
8D\J	8dd\J	.	8dd\	chcesz	ty
8F#\L 8A\	8cc\L	.	8cc\	szczé-	bę-
8D\J	8a\J	.	8a\	-rze	-dziesz
=7	=7	=7	=7	=7	=7
8GG/L	8b\	.	8b\	ko-	szlo-
8D/J	4b\	.	4b/	-chać	-chać
8G\L 8B\	.	.	.	.	.
8D\J	16a\LL	.	16a/LL	(głosem	.
.	16g\JJ	.	16g/JJ	.	.
!!LO:LB:g=original
=8	=8	=8	=8	=8	=8
8DD/L	16a\LL	.	16a/LL	bez textu-	.
.	16g#X\	.	16g#X/	.	.
8D/J	16a\	.	16a/	.	.
.	16b\JJ	.	16b/JJ	.	.
8F#\L 8A\	8cc\L	.	8cc/L	.	.
8D\J	8f#\J	.	8f#/J	.	.
=9	=9	=9	=9	=9	=9
8GG/L	16g\LL	.	16g/LL	.	.
.	16a\	.	16a/	.	.
8D/J	16b\	.	16b/	.	.
.	16cc\JJ	.	16cc/JJ	.	.
8G\L 8B\	8dd\L	.	8dd\L	.	.
8D\J	8gg\J	.	8gg\J	.	.
!!LO:LB:g=original
=10	=10	=10	=10	=10	=10
!!mixed beam
!LO:TX:a:t=P:problem=mixed beam	!	!	!	!	!
8DD/L	8dd\L 8ff#\	.	8ff#\L	.	.
8D\J	8cc\ 8ee	.	8ee\J	.	.
8F#\L 8d\	8b\ 8dd	.	8dd\L	.	.
8D\J	8a\J 8cc	.	8cc\J	.	.
=11	=11	=11	=11	=11	=11
*	*^	*	*	*	*
!	!	!	!	!LO:TX:a:rj:t=+	!	!
8GG/L	4b/	8g\	.	8b\	.	.
!	!	!	!LO:DY:rj:t=sf.	!	!	!
8D/J	.	4b\	sf	4b\	.	.
8G\L 8B\ 8d\	4ryy	.	.	.	.	.
8D\J	.	16a\LL	.	16a/LL	.	.
.	.	16g\JJ	.	16g/JJ	-)	.
*	*v	*v	*	*	*	*
=12	=12	=12	=12	=12	=12
!!mixed beam:problem
!LO:TX:a:t=P:problem=mixed beam	!	!	!	!	!
8DD/L	8a\L	.	8a/	nie	a
8D\ 8A\ 8c\	8ee\J	.	8ee\	chcesz	ty
!!mixed beam:problem
!	!LO:TX:a:t=P:problem=mixed beam	!	!	!	!
8D\ 8A\ 8c\	8dd\L	.	8dd\	szcze-	bę-
8D\J 8A\ 8c\	8f#/J	.	8f#/	-rze	-dziesz
!!LO:LB:g=original
=13	=13	=13	=13	=13	=13
!!mixed beam:problem
!LO:TX:a:t=P:problem=mixed beam	!	!	!	!	!
!LO:TX:b:rj:t=+ W niektórych strofach takt piąty wypuszca się, a w nie\nktórych powtarza.	!	!	!	!	!
8GG/L	16a\LL	.	(<16a/LL	ko-	szlo-
.	16g\JJ	.	16g/JJ)	.	.
!LO:TX:t=P:problem=niepełna miara w takcie	!	!	!	!	!
8G\ 8B\	4g\	.	4g/	-chać,	-chać.
8ryy	.	.	.	.	.
8GG\J	8r	.	8r	.	.
==	==	==	==	==	==
*-	*-	*-	*-	*-	*-
!!!system-decoration: g1[{g2}]
!!!RDF**kern: > = above
!!!RDF**kern: < = below
!!!ENC: Anastazja Marusiak
!!!END: 2021-11-09
!!!EED: Jędrzej Mróz
!!!ESR: 2021-11-11
!!!YEC: Copyright 2022 Narodowy Instytut Fryderyka Chopina (https://polishscores.org)
!!!YEM: License CC-BY-4.0 (https://creativecommons.org/licenses/by/4.0)
